gitea/gitea/public/img/logo.svg

<svg version="1.1" id="Layer_1" xmlns="http://www.w3.org/2000/svg" xmlns:xlink="http://www.w3.org/1999/xlink" x="0px"
	y="0px" width="100%" viewBox="0 0 512 512" enable-background="new 0 0 512 512" xml:space="preserve">
	<path fill="transparent" opacity="1.000000" stroke="none" d="
M513.000000,186.000000 
	C513.000000,294.959625 513.000000,403.919220 513.000000,512.939453 
	C342.436951,512.939453 171.873871,512.939453 1.000000,512.939453 
	C1.000000,404.310883 1.000000,295.621490 1.327255,186.581360 
	C2.356642,187.529694 2.847956,189.011795 3.792895,190.099960 
	C15.685398,203.794968 27.620897,217.452850 39.592602,231.078766 
	C47.542923,240.127640 55.622082,249.063538 63.548103,258.133453 
	C74.279778,270.413940 84.881142,282.808319 95.612305,295.089264 
	C103.537895,304.159454 111.642738,313.073181 119.557457,322.152740 
	C129.946625,334.070923 140.179581,346.125336 150.570312,358.042145 
	C158.486328,367.120758 166.598389,376.028351 174.524246,385.098511 
	C185.255569,397.379181 195.899216,409.736542 206.566772,422.072876 
	C212.489639,428.922241 218.301453,435.869598 224.315506,442.637573 
	C230.442184,449.532318 236.755524,456.261200 242.995300,463.031586 
	C243.003464,463.000488 242.939484,462.994080 243.023010,463.253479 
	C243.405655,463.702789 243.704773,463.892731 244.137482,464.388977 
	C247.600754,468.681213 251.348007,471.805969 257.460266,470.932617 
	C263.982513,471.193390 268.186646,468.255127 271.272217,462.975464 
	C271.715973,462.623108 271.892822,462.321533 272.034607,462.025085 
	C271.999603,462.030273 272.031799,462.093475 272.349640,461.964233 
	C275.285065,458.885345 277.902100,455.935181 280.520294,452.986084 
	C285.871765,446.958069 291.274475,440.974670 296.565216,434.893829 
	C307.230499,422.635895 317.790436,410.286133 328.479309,398.048950 
	C336.378571,389.005402 344.471161,380.130737 352.373352,371.089691 
	C363.175385,358.730957 373.846405,346.257751 384.634888,333.887054 
	C392.199585,325.212921 399.915497,316.670563 407.476257,307.993011 
	C418.149994,295.742615 428.706604,283.390167 439.384918,271.143799 
	C445.009705,264.693054 450.863342,258.441650 456.477936,251.982269 
	C466.810333,240.095139 477.064178,228.139404 487.309906,216.177277 
	C495.903473,206.144058 504.438873,196.061005 513.000000,186.000000 
z" />
	<path fill="transparent" opacity="1.000000" stroke="none" d="
M0.999999,175.000000 
	C1.000000,117.029503 1.000000,59.058998 1.000000,1.088498 
	C1.137083,1.058998 1.274165,1.003642 1.411248,1.003639 
	C171.824539,0.999979 342.237823,1.000000 513.000000,1.000000 
	C513.000000,58.687092 513.000000,116.374886 512.696533,174.365234 
	C511.704102,173.387650 511.251129,171.885590 510.288849,170.862610 
	C502.898956,163.006668 495.486969,155.168533 487.937317,147.466492 
	C467.221802,126.332916 446.469116,105.235504 425.664551,84.189606 
	C413.494843,71.878761 401.312378,59.574974 388.854797,47.559200 
	C386.541626,45.328091 382.909271,43.249229 379.852478,43.200836 
	C359.221436,42.874233 338.581390,43.113350 317.483093,43.107910 
	C297.051025,43.053753 277.080139,43.061054 256.634369,43.042648 
	C236.072632,43.039074 215.985733,43.061203 195.437210,43.057613 
	C175.835739,43.021339 156.694077,43.155445 137.557251,42.910267 
	C131.964127,42.838608 127.736557,44.632030 123.863464,48.560352 
	C91.166023,81.724052 58.374374,114.794868 25.606710,147.889313 
	C22.445009,151.082550 19.102865,154.111450 16.110224,157.454529 
	C10.963195,163.204285 6.025537,169.141479 0.999999,175.000000 
z" />
	<path fill="#A0EBFF" opacity="1.000000" stroke="none" d="
M0.999999,175.416656 
	C6.025537,169.141479 10.963195,163.204285 16.110224,157.454529 
	C19.102865,154.111450 22.445009,151.082550 25.606710,147.889313 
	C58.374374,114.794868 91.166023,81.724052 123.863464,48.560352 
	C127.736557,44.632030 131.964127,42.838608 137.557251,42.910267 
	C156.694077,43.155445 175.835739,43.021339 195.320038,43.371040 
	C186.203018,60.286037 176.738541,76.860161 167.280853,93.438171 
	C155.356491,114.339935 143.410431,135.229401 131.531311,156.156860 
	C127.375435,163.478271 123.390366,170.896652 118.431686,179.896194 
	C165.478867,179.896194 211.145935,179.896194 256.872803,180.367859 
	C256.955048,183.168777 256.996735,185.498062 256.997253,187.827332 
	C257.018188,282.182617 257.035370,376.537903 257.053070,470.893188 
	C251.348007,471.805969 247.600754,468.681213 244.055832,464.123505 
	C243.540222,463.365875 243.239853,463.179962 242.939484,462.994080 
	C242.939484,462.994080 243.003464,463.000488 243.024475,462.649780 
	C242.820801,461.505005 242.689209,460.669586 242.357803,459.922882 
	C234.062286,441.232117 225.741150,422.552704 217.433960,403.867126 
	C203.791382,373.180603 190.127640,342.503479 176.523468,311.799927 
	C157.667572,269.243652 138.824951,226.681412 120.101089,184.067047 
	C118.779434,181.059067 117.351044,179.874649 113.915611,179.888489 
	C76.277542,180.040344 38.638660,179.993134 1.000000,180.000000 
	C1.000000,178.611115 1.000000,177.222214 0.999999,175.416656 
z" />
	<path fill="#41B4E6" opacity="1.000000" stroke="none" d="
M1.000000,180.428467 
	C38.638660,179.993134 76.277542,180.040344 113.915611,179.888489 
	C117.351044,179.874649 118.779434,181.059067 120.101089,184.067047 
	C138.824951,226.681412 157.667572,269.243652 176.523468,311.799927 
	C190.127640,342.503479 203.791382,373.180603 217.433960,403.867126 
	C225.741150,422.552704 234.062286,441.232117 242.357803,459.922882 
	C242.689209,460.669586 242.820801,461.505005 243.016327,462.680878 
	C236.755524,456.261200 230.442184,449.532318 224.315506,442.637573 
	C218.301453,435.869598 212.489639,428.922241 206.566772,422.072876 
	C195.899216,409.736542 185.255569,397.379181 174.524246,385.098511 
	C166.598389,376.028351 158.486328,367.120758 150.570312,358.042145 
	C140.179581,346.125336 129.946625,334.070923 119.557457,322.152740 
	C111.642738,313.073181 103.537895,304.159454 95.612305,295.089264 
	C84.881142,282.808319 74.279778,270.413940 63.548103,258.133453 
	C55.622082,249.063538 47.542923,240.127640 39.592602,231.078766 
	C27.620897,217.452850 15.685398,203.794968 3.792895,190.099960 
	C2.847956,189.011795 2.356642,187.529694 1.327255,186.115326 
	C1.000000,184.285645 1.000000,182.571289 1.000000,180.428467 
z" />
	<path fill="#0073AA" opacity="1.000000" stroke="none" d="
M513.000000,185.571533 
	C504.438873,196.061005 495.903473,206.144058 487.309906,216.177277 
	C477.064178,228.139404 466.810333,240.095139 456.477936,251.982269 
	C450.863342,258.441650 445.009705,264.693054 439.384918,271.143799 
	C428.706604,283.390167 418.149994,295.742615 407.476257,307.993011 
	C399.915497,316.670563 392.199585,325.212921 384.634888,333.887054 
	C373.846405,346.257751 363.175385,358.730957 352.373352,371.089691 
	C344.471161,380.130737 336.378571,389.005402 328.479309,398.048950 
	C317.790436,410.286133 307.230499,422.635895 296.565216,434.893829 
	C291.274475,440.974670 285.871765,446.958069 280.520294,452.986084 
	C277.902100,455.935181 275.285065,458.885345 272.228424,461.581055 
	C277.450500,448.089081 282.989594,434.797272 288.797119,421.623779 
	C302.825287,389.802826 316.993011,358.043427 331.077759,326.247406 
	C345.766327,293.088440 360.445831,259.925385 375.084717,226.744476 
	C381.903564,211.288635 388.617157,195.786377 395.812469,180.202972 
	C401.567535,180.054855 406.888519,179.977554 412.209625,179.968155 
	C445.478760,179.909439 478.747894,179.865875 512.257874,179.889343 
	C512.665833,179.974258 512.832947,179.987137 513.000000,180.000000 
	C513.000000,181.714355 513.000000,183.428711 513.000000,185.571533 
z" />
	<path fill="#73C8F0" opacity="1.000000" stroke="none" d="
M512.017029,179.817307 
	C478.747894,179.865875 445.478760,179.909439 412.209625,179.968155 
	C406.888519,179.977554 401.567535,180.054855 395.717712,180.130203 
	C395.188904,180.159637 395.006104,180.005783 394.960449,179.653015 
	C389.926849,170.491379 384.947174,161.677811 379.949219,152.874634 
	C369.207153,133.954041 358.424164,115.056602 347.717133,96.116203 
	C337.752930,78.489822 327.865509,60.820042 317.944275,43.169369 
	C338.581390,43.113350 359.221436,42.874233 379.852478,43.200836 
	C382.909271,43.249229 386.541626,45.328091 388.854797,47.559200 
	C401.312378,59.574974 413.494843,71.878761 425.664551,84.189606 
	C446.469116,105.235504 467.221802,126.332916 487.937317,147.466492 
	C495.486969,155.168533 502.898956,163.006668 510.288849,170.862610 
	C511.251129,171.885590 511.704102,173.387650 512.696533,174.833893 
	C513.000000,176.066666 513.000000,177.133347 512.795410,178.682037 
	C512.333252,179.323578 512.141968,179.541321 512.017029,179.817307 
z" />
	<path fill="#68C0E9" opacity="1.000000" stroke="none" d="
M512.257874,179.889343 
	C512.141968,179.541321 512.333252,179.323578 512.795410,179.082031 
	C513.000000,179.000000 513.000000,179.500000 513.000000,179.750000 
	C512.832947,179.987137 512.665833,179.974258 512.257874,179.889343 
z" />
	<path fill="#73C8F0" opacity="1.000000" stroke="none" d="
M395.283691,180.232391 
	C388.617157,195.786377 381.903564,211.288635 375.084717,226.744476 
	C360.445831,259.925385 345.766327,293.088440 331.077759,326.247406 
	C316.993011,358.043427 302.825287,389.802826 288.797119,421.623779 
	C282.989594,434.797272 277.450500,448.089081 271.910583,461.710297 
	C272.031799,462.093475 271.999603,462.030273 271.736389,462.000641 
	C271.317200,462.322723 271.161255,462.674469 271.005310,463.026184 
	C268.186646,468.255127 263.982513,471.193390 257.460266,470.932617 
	C257.035370,376.537903 257.018188,282.182617 256.997253,187.827332 
	C256.996735,185.498062 256.955048,183.168777 256.952271,180.369598 
	C256.971985,179.899689 257.086243,180.010284 257.546997,179.997787 
	C303.673859,179.992126 349.339996,179.998962 395.006104,180.005783 
	C395.006104,180.005783 395.188904,180.159637 395.283691,180.232391 
z" />
	<path fill="#0073AA" opacity="1.000000" stroke="none" d="
M271.272217,462.975464 
	C271.161255,462.674469 271.317200,462.322723 271.771393,461.995483 
	C271.892822,462.321533 271.715973,462.623108 271.272217,462.975464 
z" />
	<path fill="#41B4E6" opacity="1.000000" stroke="none" d="
M243.023010,463.253479 
	C243.239853,463.179962 243.540222,463.365875 243.922241,463.817200 
	C243.704773,463.892731 243.405655,463.702789 243.023010,463.253479 
z" />
	<path fill="#D2F0FF" opacity="1.000000" stroke="none" d="
M256.892487,179.897949 
	C211.145935,179.896194 165.478867,179.896194 118.431686,179.896194 
	C123.390366,170.896652 127.375435,163.478271 131.531311,156.156860 
	C143.410431,135.229401 155.356491,114.339935 167.280853,93.438171 
	C176.738541,76.860161 186.203018,60.286037 195.781677,43.396759 
	C215.985733,43.061203 236.072632,43.039074 256.577026,43.503147 
	C257.025085,89.329659 257.055664,134.669968 257.086243,180.010284 
	C257.086243,180.010284 256.971985,179.899689 256.892487,179.897949 
z" />
	<path fill="#41B4E6" opacity="1.000000" stroke="none" d="
M257.546997,179.997787 
	C257.055664,134.669968 257.025085,89.329659 257.051880,43.528851 
	C277.080139,43.061054 297.051025,43.053753 317.483093,43.107910 
	C327.865509,60.820042 337.752930,78.489822 347.717133,96.116203 
	C358.424164,115.056602 369.207153,133.954041 379.949219,152.874634 
	C384.947174,161.677811 389.926849,170.491379 394.960449,179.653015 
	C349.339996,179.998962 303.673859,179.992126 257.546997,179.997787 
z" />
</svg>

<svg xmlns="http://www.w3.org/2000/svg" xml:space="preserve" viewBox="0 0 512 512" width="32" height="32"><path fill="#FFF" d="M513 186v326.94H1c0-108.63 0-217.319.327-326.359 1.03.949 1.521 2.43 2.466 3.519a9390.426 9390.426 0 0 0 35.8 40.979c7.95 9.049 16.03 17.985 23.955 27.054 10.732 12.28 21.333 24.675 32.064 36.956 7.926 9.07 16.03 17.984 23.945 27.064 10.39 11.918 20.623 23.972 31.013 35.89 7.916 9.078 16.028 17.985 23.954 27.056 10.732 12.28 21.375 24.638 32.043 36.974 5.923 6.85 11.734 13.797 17.749 20.565 6.126 6.894 12.44 13.623 18.68 20.394.007-.032-.057-.038.027.221.383.45.682.64 1.114 1.136 3.464 4.292 7.211 7.417 13.323 6.544 6.523.26 10.727-2.678 13.812-7.958.444-.352.62-.653.763-.95-.035.005-.003.068.315-.06 2.935-3.08 5.552-6.03 8.17-8.979 5.352-6.028 10.754-12.011 16.045-18.092 10.665-12.258 21.225-24.608 31.914-36.845 7.9-9.044 15.992-17.918 23.894-26.96 10.802-12.358 21.473-24.831 32.262-37.202 7.565-8.674 15.28-17.216 22.841-25.894 10.674-12.25 21.23-24.603 31.909-36.85 5.625-6.45 11.478-12.701 17.093-19.16 10.332-11.888 20.586-23.844 30.832-35.806 8.593-10.033 17.129-20.116 25.69-30.177zM1 175V1.044h512c0 57.643 0 115.33-.303 173.321-.993-.977-1.446-2.48-2.408-3.502-7.39-7.856-14.802-15.694-22.352-23.397a21023.48 21023.48 0 0 0-62.272-63.276c-12.17-12.311-24.353-24.615-36.81-36.63-2.313-2.232-5.946-4.31-9.003-4.36-20.63-.326-41.27-.087-62.369-.092-20.432-.054-40.403-.047-60.849-.065-20.561-.004-40.648.018-61.197.015-19.601-.037-38.743.097-57.88-.148-5.593-.071-9.82 1.722-13.694 5.65-32.697 33.164-65.489 66.235-98.256 99.33-3.162 3.193-6.504 6.221-9.497 9.565C10.963 163.205 6.026 169.14 1 175z"/><path fill="#A0EBFF" d="M1 175.417c5.026-6.276 9.963-12.213 15.11-17.962 2.993-3.344 6.335-6.372 9.497-9.566 32.767-33.094 65.559-66.165 98.256-99.329 3.874-3.928 8.101-5.721 13.694-5.65 19.137.245 38.279.111 57.763.461-9.117 16.915-18.581 33.49-28.04 50.067-11.924 20.902-23.87 41.791-35.749 62.719-4.156 7.321-8.14 14.74-13.1 23.74 47.039 0 92.71 0 138.442.47.082 2.802.124 5.131.124 7.46.021 94.356.038 188.71.056 283.066-5.705.913-9.452-2.212-12.997-6.77-.516-.757-.816-.943-1.117-1.129 0 0 .064.006.085-.344-.203-1.145-.335-1.98-.666-2.727-8.296-18.69-16.617-37.37-24.924-56.056-13.643-30.686-27.306-61.364-40.91-92.067-18.856-42.556-37.699-85.119-56.423-127.733-1.322-3.008-2.75-4.192-6.185-4.179-37.638.152-75.277.105-112.916.112v-4.583z"/><path fill="#41B4E6" d="M1 180.428c37.639-.435 75.278-.388 112.916-.54 3.435-.013 4.863 1.171 6.185 4.179 18.724 42.614 37.567 85.177 56.422 127.733 13.605 30.703 27.268 61.38 40.911 92.067 8.307 18.686 16.628 37.365 24.924 56.056.331.747.463 1.582.658 2.758-6.26-6.42-12.574-13.149-18.7-20.043-6.015-6.768-11.826-13.716-17.75-20.565-10.667-12.336-21.31-24.694-32.042-36.974-7.926-9.07-16.038-17.978-23.954-27.057-10.39-11.917-20.623-23.971-31.013-35.89-7.914-9.079-16.02-17.993-23.945-27.063-10.73-12.28-21.332-24.675-32.064-36.956-7.926-9.07-16.005-18.005-23.955-27.054a9390.426 9390.426 0 0 1-35.8-40.979c-.945-1.088-1.436-2.57-2.466-3.985C1 184.285 1 182.571 1 180.428z"/><path fill="#0073AA" d="M513 185.572c-8.561 10.489-17.097 20.572-25.69 30.605-10.246 11.962-20.5 23.918-30.832 35.805-5.615 6.46-11.468 12.711-17.093 19.162-10.678 12.246-21.235 24.599-31.909 36.849-7.56 8.678-15.276 17.22-22.841 25.894-10.789 12.37-21.46 24.844-32.262 37.203-7.902 9.04-15.994 17.915-23.894 26.959-10.689 12.237-21.249 24.587-31.914 36.845-5.29 6.08-10.693 12.064-16.045 18.092-2.618 2.95-5.235 5.9-8.292 8.595 5.222-13.492 10.762-26.784 16.57-39.957 14.027-31.821 28.195-63.58 42.28-95.377a72650.872 72650.872 0 0 0 44.007-99.503c6.819-15.455 13.532-30.958 20.727-46.541a676.34 676.34 0 0 1 16.398-.235c33.269-.059 66.538-.102 100.048-.079.408.085.575.098.742.111v5.572z"/><path fill="#73C8F0" d="M512.017 179.817c-33.27.049-66.538.092-99.807.151-5.321.01-10.642.087-16.492.162-.53.03-.712-.124-.758-.477-5.033-9.162-10.013-17.975-15.01-26.778-10.743-18.921-21.526-37.818-32.233-56.759-9.964-17.626-19.851-35.296-29.773-52.947 20.637-.056 41.277-.295 61.908.032 3.057.048 6.69 2.127 9.003 4.358 12.457 12.016 24.64 24.32 36.81 36.63a21023.48 21023.48 0 0 1 62.272 63.277c7.55 7.703 14.962 15.54 22.352 23.397.962 1.023 1.415 2.525 2.408 3.97.303 1.234.303 2.3.098 3.849-.462.642-.653.86-.778 1.135z"/><path fill="#68C0E9" d="M512.258 179.89c-.116-.349.075-.566.537-.808.205-.082.205.418.205.668-.167.237-.334.224-.742.14z"/><path fill="#73C8F0" d="M395.284 180.232a4793.735 4793.735 0 0 1-20.2 46.512 72650.872 72650.872 0 0 1-44.006 99.503c-14.085 31.796-28.253 63.556-42.28 95.377-5.808 13.173-11.348 26.465-16.887 40.086.12.383.089.32-.175.29-.419.323-.575.674-.73 1.026-2.82 5.23-7.023 8.167-13.546 7.907-.425-94.395-.442-188.75-.463-283.106 0-2.329-.042-4.658-.045-7.457.02-.47.134-.36.595-.372 46.127-.006 91.793.001 137.46.008 0 0 .182.154.277.226z"/><path fill="#0073AA" d="M271.272 462.975c-.11-.3.045-.652.5-.98.12.327-.056.628-.5.98z"/><path fill="#41B4E6" d="M243.023 463.253c.217-.073.517.113.9.564-.218.076-.517-.114-.9-.564z"/><path fill="#D2F0FF" d="M256.892 179.898c-45.75-.002-91.422-.002-138.46-.002 4.958-9 8.943-16.418 13.1-23.74 11.878-20.927 23.824-41.816 35.749-62.718 9.458-16.578 18.922-33.152 28.5-50.041 20.205-.336 40.292-.358 60.796.106.448 45.827.479 91.167.51 136.507 0 0-.115-.11-.195-.112z"/><path fill="#41B4E6" d="M257.547 179.998c-.491-45.328-.522-90.668-.495-136.47 20.028-.467 39.999-.474 60.431-.42 10.383 17.712 20.27 35.382 30.234 53.008 10.707 18.94 21.49 37.838 32.232 56.759 4.998 8.803 9.978 17.616 15.011 26.778-45.62.346-91.286.34-137.413.345z"/></svg>
